X: 34670
T: Road To Coolea, The
R: jig
M: 6/8
K: Edorian
~E3 GAB|~E3 AFD|~E3 GBd|AFD EGF:|
~G3 BAB|~G3 FED|~G3 BAB|~F3 AFD:|

